X:1
T:Valse Carcassonne
M:3/4
L:1/8
Q:140
R:Waltz
K:Bm
Bc dfce|d3 c B2|AB c3 B|cd ed cA|Bc df ce|!d3 e f2|
1ec AF AB|B3 F BF:|2e2 c2 A2 |B2 D2 F2
|:A3 B cB|AF ED CA,|!B,A, B,C DE|F2 D2 CD|
E3 F G2|F2 B2 c2|dc BF DC|1B,2 D2 F2:|2B,4 F2||
